build/svg/cmd/sc_snapframe.svg

<?xml version="1.0" encoding="UTF-8" standalone="no"?>
<svg
   xmlns:dc="http://purl.org/dc/elements/1.1/"
   xmlns:cc="http://creativecommons.org/ns#"
   xmlns:rdf="http://www.w3.org/1999/02/22-rdf-syntax-ns#"
   xmlns:svg="http://www.w3.org/2000/svg"
   xmlns="http://www.w3.org/2000/svg"
   xmlns:sodipodi="http://sodipodi.sourceforge.net/DTD/sodipodi-0.dtd"
   xmlns:inkscape="http://www.inkscape.org/namespaces/inkscape"
   viewBox="0 0 16 16"
   version="1.1"
   id="svg4"
   sodipodi:docname="sc_snapframe.svg"
   inkscape:version="0.92.5 (2060ec1f9f, 2020-04-08)"
   inkscape:export-filename="/home/jupiter007/Libreoffice yaru theme fullcolor/build/cmd/sc_snapframe.png"
   inkscape:export-xdpi="95"
   inkscape:export-ydpi="95"><metadata
   id="metadata10">
  <rdf:RDF>
    <cc:Work
       rdf:about="">
      <dc:format>image/svg+xml</dc:format>
      <dc:type
         rdf:resource="http://purl.org/dc/dcmitype/StillImage" />
    </cc:Work>
  </rdf:RDF>
</metadata>
<defs
   id="defs8" />
<sodipodi:namedview
   pagecolor="#ffffff"
   bordercolor="#666666"
   borderopacity="1"
   objecttolerance="10"
   gridtolerance="10"
   guidetolerance="10"
   inkscape:pageopacity="0"
   inkscape:pageshadow="2"
   inkscape:window-width="1920"
   inkscape:window-height="1011"
   id="namedview6"
   showgrid="false"
   inkscape:zoom="14.75"
   inkscape:cx="0.44067797"
   inkscape:cy="8"
   inkscape:window-x="0"
   inkscape:window-y="32"
   inkscape:window-maximized="1"
   inkscape:current-layer="svg4" />
/&gt;<path
   inkscape:connector-curvature="0"
   style="fill:#232629"
   d="M 3.0000002,2.9999994 V 13.000001 H 13 V 2.9999994 Z m 1,1 H 12 V 12.000001 H 4.0000002 Z"
   id="path2" />
<path
   inkscape:connector-curvature="0"
   style="fill:#e95420"
   d="M 2.0000002,1.9999994 V 14.000001 H 12 14 v -2 -5.0000015 -5.0000001 z m 1,1 H 13 V 13.000001 H 3.0000002 Z"
   id="path4" />
<rect
   style="opacity:1;fill:#ffffff;fill-opacity:1;stroke:none;stroke-width:2;stroke-linecap:round;stroke-linejoin:round;stroke-miterlimit:4;stroke-dasharray:none;stroke-opacity:1"
   id="rect824"
   width="8"
   height="8"
   x="4.0000005"
   y="3.9999995" />
<path
   sodipodi:nodetypes="cccccccccccccccc"
   style="opacity:0.6;fill:#000000;stroke:#000000;stroke-width:2;stroke-linejoin:round;stroke-miterlimit:4;stroke-dasharray:none"
   inkscape:connector-curvature="0"
   id="path847"
   d="m 12,8.0000004 c -1,0 -2,0 -2,1.4999996 V 11 H 9 v 4 h 6 V 11 H 14 V 9.5 C 14,8.0000004 13,8.0000004 12,8.0000004 Z M 12,9 c 1,0 1,0.5 1,1 v 1 h -2 v -1 c 0,-0.5 0,-1 1,-1 z" />
<path
   d="m 12,8.0000004 c -1,0 -2,0 -2,1.4999996 V 11 H 9 v 4 h 6 V 11 H 14 V 9.5 C 14,8.0000004 13,8.0000004 12,8.0000004 Z M 12,9 c 1,0 1,0.5 1,1 v 1 h -2 v -1 c 0,-0.5 0,-1 1,-1 z"
   id="path2-8"
   inkscape:connector-curvature="0"
   style="fill:#ffffff"
   sodipodi:nodetypes="cccccccccccccccc" />
</svg>

<svg xmlns="http://www.w3.org/2000/svg" viewBox="0 0 16 16">/&gt;<path d="M3 3v10h10V3zm1 1h8v8H4z" fill="#232629"/><path d="M2 2v12h12V2zm1 1h10v10H3z" fill="#e95420"/><path fill="#fff" d="M4 4h8v8H4z"/><path d="M12 8c-1 0-2 0-2 1.5V11H9v4h6v-4h-1V9.5C14 8 13 8 12 8zm0 1c1 0 1 .5 1 1v1h-2v-1c0-.5 0-1 1-1z" opacity=".6" stroke="#000" stroke-width="2" stroke-linejoin="round"/><path d="M12 8c-1 0-2 0-2 1.5V11H9v4h6v-4h-1V9.5C14 8 13 8 12 8zm0 1c1 0 1 .5 1 1v1h-2v-1c0-.5 0-1 1-1z" fill="#fff"/></svg>
